!!!COM: Music21
!!!OTL: Carballesa
!!!OMV: pezas_muineiras_carballesas_carballesa-6_carballesa-partitura.musicxml
**kern
*I"Gaita
*I'Bag
*clefG^2
*k[]
*M2/4
*MM175
=1
!LO:TX:a:t=[quarter]=175
4r
8cccL
8ggJ
=||
8eeL
8eeJ
8eeL
8ggJ
=
8ffL
8ddJ
8ffL
8aaJ
=
8ggL
8eeJ
8ffL
8ddJ
=
8ggL
8eeJ
8cccL
8ggJ
=
8eeL
8eeJ
8eeL
8ggJ
=
8ffL
8ddJ
8ffL
8aaJ
=
8ggL
8eeJ
8ffL
8ddJ
=
4cc
8cccL
8ggJ
=||
8eeL
8eeJ
8eeL
8ggJ
!!linebreak:original
=
8ffL
8ddJ
8ffL
8aaJ
=
8ggL
8eeJ
8ffL
8ddJ
=
8ggL
8eeJ
8cccL
8ggJ
=
8eeL
8eeJ
8eeL
8ggJ
=
8ffL
8ddJ
8ffL
8aaJ
=
8ggL
8eeJ
8ffL
8ddJ
=
4cc
8ccL
8eeJ
!!linebreak:original
=||
8ddL
8ddJ
8ddL
8ffJ
=
8eeL
8eeJ
8eeL
8ggJ
=
8ggL
8ffJ
8eeL
8ddJ
=
8ggL
8eeJ
8ccL
8eeJ
=
8ddL
8ddJ
8ddL
8ffJ
=
8eeL
8eeJ
8eeL
8ggJ
=
8ggL
8ffJ
8eeL
8ddJ
=
4cc
8ccL
8eeJ
!!linebreak:original
=||
8ddL
8ddJ
8ddL
8ffJ
=
8eeL
8eeJ
8eeL
8ggJ
=
8ggL
8ffJ
8eeL
8ddJ
=
8ggL
8eeJ
8ccL
8eeJ
=
8ddL
8ddJ
8ddL
8ffJ
=
8eeL
8eeJ
8eeL
8ggJ
=
8ggL
8ffJ
8eeL
8ddJ
=
*k[b-e-a-]
4cc
8ccL
8ee-J
!!linebreak:original
=||
8ddL
8ddJ
8ddL
8ffJ
=
8ee-L
8ee-J
8ee-L
8ggJ
=
8ggL
8ffJ
8ee-L
8ddJ
=
8ggL
8ee-J
8ccL
8ee-J
=
8ddL
8ddJ
8ddL
8ffJ
=
8ee-L
8ee-J
8ee-L
8ggJ
=
8ggL
8ffJ
8ee-L
8ddJ
=
4cc
8ccL
8ee-J
!!linebreak:original
=||
8ddL
8ddJ
8ddL
8ffJ
=
8ee-L
8ee-J
8ee-L
8ggJ
=
8ggL
8ffJ
8ee-L
8ddJ
=
8ggL
8ee-J
8ccL
8ee-J
=
8ddL
8ddJ
8ddL
8ffJ
=
8ee-L
8ee-J
8ee-L
8ggJ
=
*k[]
8ggL
8ffJ
8ee-XL
8ddJ
!!linebreak:original
=||
4cc
8cccL
8ggJ
=||
8cc
8r
4r
==
*-
